libs/ui/packages/crypto-icons/src/svg/AGI.svg

<svg width="24" height="24" viewBox="0 0 24 24" fill="none">
<path d="M12.739 5.04075C12.6973 5.01067 12.6681 4.96634 12.6569 4.91617C12.6457 4.86599 12.6533 4.81345 12.6782 4.7685C12.7132 4.74611 12.7538 4.73421 12.7952 4.73421C12.8367 4.73421 12.8773 4.74611 12.9122 4.7685C13.4408 4.98791 13.9192 5.31249 14.3185 5.7225C14.5457 5.93325 14.7362 6.17925 14.881 6.45C15.034 6.726 15.1592 7.01475 15.256 7.314C15.3482 7.62375 15.3962 7.9455 15.397 8.268C15.3497 8.58675 15.3032 10.1317 14.4122 10.8592C14.2988 10.9274 14.1642 10.9512 14.0343 10.926C13.9044 10.9008 13.7884 10.8284 13.7087 10.7227C13.6451 10.6481 13.6063 10.5554 13.598 10.4576C13.5897 10.3598 13.6121 10.2619 13.6622 10.1775C14.041 9.59106 14.2503 8.91129 14.2668 8.21334C14.2834 7.5154 14.1066 6.82647 13.756 6.22275C13.456 5.79825 13.1155 5.403 12.739 5.04075ZM11.356 18.9772C11.4497 19.068 11.4497 19.1587 11.4032 19.2045C11.3567 19.2502 11.2622 19.2952 11.2157 19.2495C10.6872 19.0301 10.2087 18.7055 9.80949 18.2955C9.58293 18.0859 9.39283 17.84 9.24699 17.568C9.09428 17.2931 8.96869 17.004 8.87199 16.7047C8.77931 16.3949 8.73182 16.0734 8.73099 15.75C8.77824 15.432 8.82474 13.8862 9.71574 13.1587C9.82907 13.0908 9.96354 13.0671 10.0933 13.0923C10.223 13.1175 10.3388 13.1898 10.4185 13.2952C10.4867 13.3698 10.5246 13.4672 10.5246 13.5682C10.5246 13.6693 10.4867 13.7667 10.4185 13.8412C10.0398 14.4276 9.83066 15.1072 9.81412 15.805C9.79757 16.5028 9.97429 17.1916 10.3247 17.7952C10.6285 18.2205 10.9742 18.6165 11.356 18.9772Z" fill="#6916FF" fill-opacity="0.2"/>
<path d="M15.4015 15.2273C15.3336 14.3547 14.9885 13.5266 14.4167 12.864C13.8379 12.2822 13.1741 11.7916 12.448 11.409C11.8147 11.0589 11.2179 10.6464 10.6667 10.1775C10.2134 9.75145 9.90255 9.19596 9.77649 8.58676C9.66455 7.95778 9.74452 7.30966 10.006 6.72676C10.3193 6.07826 10.7684 5.50477 11.323 5.04526C11.3542 5.01744 11.3756 4.98034 11.3841 4.93943C11.3926 4.89851 11.3878 4.85595 11.3702 4.81801C11.3569 4.79409 11.3382 4.77351 11.3158 4.75782C11.2933 4.74212 11.2676 4.73172 11.2405 4.72739C11.2135 4.72306 11.1858 4.72492 11.1595 4.73282C11.1333 4.74072 11.1092 4.75446 11.089 4.77301C10.342 5.09887 9.70646 5.63587 9.26049 6.31801C8.76173 7.03464 8.5281 7.90259 8.59974 8.77276C8.63715 9.21242 8.7482 9.64266 8.92824 10.0455C9.12306 10.4443 9.3758 10.812 9.67824 11.1368C10.2743 11.7063 10.9539 12.1812 11.6935 12.5453C12.3295 12.8753 12.9272 13.272 13.4747 13.7273C13.9564 14.1499 14.2722 14.7299 14.3657 15.3638C14.4977 16.023 14.4152 16.7063 14.131 17.3183C13.8119 17.9626 13.3462 18.5231 12.7712 18.9548C12.7522 18.9657 12.7357 18.9805 12.7229 18.9983C12.71 19.016 12.701 19.0363 12.6966 19.0578C12.6921 19.0792 12.6922 19.1014 12.697 19.1228C12.7017 19.1442 12.7109 19.1644 12.724 19.182C12.7502 19.23 12.799 19.2645 12.8537 19.2728C12.9085 19.281 12.9655 19.2653 13.006 19.2278C13.7029 18.8254 14.3093 18.2836 14.7872 17.6363C15.2522 16.9178 15.4667 16.0733 15.4015 15.2273Z" fill="#6916FF"/>
</svg>

<svg width="24" height="24" viewBox="0 0 24 24" fill="none"><path fill="#6916ff" fill-opacity=".2" d="M12.739 5.04a.21.21 0 0 1-.06-.271.22.22 0 0 1 .233 0 4.2 4.2 0 0 1 1.406.954c.228.21.418.456.563.727q.23.415.375.864c.092.31.14.632.141.954-.047.319-.094 1.864-.985 2.591a.535.535 0 0 1-.703-.136.47.47 0 0 1-.047-.546 3.79 3.79 0 0 0 .094-3.954 8 8 0 0 0-1.017-1.182m-1.383 13.937c.094.091.094.182.047.227-.046.046-.14.091-.187.046a4.2 4.2 0 0 1-1.407-.954 2.8 2.8 0 0 1-.562-.728 5 5 0 0 1-.375-.863 3.4 3.4 0 0 1-.141-.955c.047-.318.094-1.864.985-2.591a.536.536 0 0 1 .703.136.405.405 0 0 1 0 .546 3.79 3.79 0 0 0-.094 3.954q.458.639 1.031 1.182"/><path fill="#6916ff" d="M15.402 15.227a4.1 4.1 0 0 0-.985-2.363 8.1 8.1 0 0 0-1.969-1.455c-.633-.35-1.23-.763-1.781-1.232a3 3 0 0 1-.89-1.59 3.2 3.2 0 0 1 .229-1.86 5 5 0 0 1 1.317-1.682.195.195 0 0 0 .047-.227.18.18 0 0 0-.281-.045A4.2 4.2 0 0 0 9.26 6.318a3.76 3.76 0 0 0-.66 2.455c.037.44.148.87.328 1.273a4.5 4.5 0 0 0 .75 1.09 8.1 8.1 0 0 0 2.015 1.41c.636.33 1.234.726 1.782 1.181.481.423.797 1.003.89 1.637.133.659.05 1.342-.234 1.954a4.6 4.6 0 0 1-1.36 1.637.15.15 0 0 0-.074.103.15.15 0 0 0 .027.124.18.18 0 0 0 .13.09.2.2 0 0 0 .152-.044 5.85 5.85 0 0 0 1.781-1.592 3.88 3.88 0 0 0 .614-2.409"/></svg>
